icons/solid/battery-0.svg

<svg width="24" height="24" viewBox="0 0 24 24" fill="none" xmlns="http://www.w3.org/2000/svg">
<path fill-rule="evenodd" clip-rule="evenodd" d="M0.75 9.75C0.75 8.09315 2.09315 6.75 3.75 6.75H18.75C20.4069 6.75 21.75 8.09315 21.75 9.75V9.78751C22.6058 9.96123 23.25 10.7179 23.25 11.625V13.875C23.25 14.7821 22.6058 15.5388 21.75 15.7125V15.75C21.75 17.4069 20.4069 18.75 18.75 18.75H3.75C2.09315 18.75 0.75 17.4069 0.75 15.75V9.75ZM20.25 9.75C20.25 8.92157 19.5784 8.25 18.75 8.25H3.75C2.92157 8.25 2.25 8.92157 2.25 9.75V15.75C2.25 16.5784 2.92157 17.25 3.75 17.25H18.75C19.5784 17.25 20.25 16.5784 20.25 15.75V9.75Z" fill="#0F172A"/>
</svg>

<svg xmlns="http://www.w3.org/2000/svg" viewBox="0 0 24 24" fill="currentColor" aria-hidden="true" data-slot="icon">
  <path fill-rule="evenodd" d="M.75 9.75a3 3 0 0 1 3-3h15a3 3 0 0 1 3 3v.038c.856.173 1.5.93 1.5 1.837v2.25c0 .907-.644 1.664-1.5 1.838v.037a3 3 0 0 1-3 3h-15a3 3 0 0 1-3-3v-6Zm19.5 0a1.5 1.5 0 0 0-1.5-1.5h-15a1.5 1.5 0 0 0-1.5 1.5v6a1.5 1.5 0 0 0 1.5 1.5h15a1.5 1.5 0 0 0 1.5-1.5v-6Z" clip-rule="evenodd"/>
</svg>
